svg/business/currency_euro_fill.svg

<?xml version="1.0" encoding="UTF-8"?>
<svg width="24px" height="24px" viewBox="0 0 24 24" version="1.1" xmlns="http://www.w3.org/2000/svg" xmlns:xlink="http://www.w3.org/1999/xlink">
    <title>currency_euro_fill</title>
    <g id="Icon" stroke="none" stroke-width="1" fill="none" fill-rule="evenodd">
        <g id="Business" transform="translate(-624.000000, -48.000000)">
            <g id="currency_euro_fill" transform="translate(624.000000, 48.000000)">
                <rect id="矩形" fill-rule="nonzero" x="0" y="0" width="24" height="24"></rect>
                <path d="M12,2 C6.47715,2 2,6.47715 2,12 C2,17.5228 6.47715,22 12,22 C17.5228,22 22,17.5228 22,12 C22,6.47715 17.5228,2 12,2 Z M9.02328,11.5 C9.00795,11.6624 9,11.8292 9,12 C9,12.1708 9.00795,12.3376 9.02328,12.5 L12,12.5 C12.5523,12.5 13,12.9477 13,13.5 C13,14.0523 12.5523,14.5 12,14.5 L9.68599,14.5 C10.2875,15.4455 11.2061,16 12.118,16 C12.6686,16 13.0348,15.8938 13.322,15.738 C13.6214,15.5757 13.9021,15.3235 14.2345,14.928 C14.5898,14.5052 15.2206,14.4506 15.6434,14.8059 C16.0662,15.1612 16.1209,15.792 15.7655,16.2148 C15.3552,16.7031 14.8859,17.1651 14.2754,17.4962 C13.6528,17.8338 12.9494,18 12.118,18 C9.95561,18 8.25101,16.5049 7.46804,14.5 L7,14.5 C6.44772,14.5 6,14.0523 6,13.5 C6,12.9477 6.44772,12.5 7,12.5 L7.01809,12.5 C7.00609,12.3343 7,12.1675 7,12 C7,11.8325 7.00609,11.6657 7.01809,11.5 L7,11.5 C6.44772,11.5 6,11.0523 6,10.5 C6,9.94772 6.44772,9.5 7,9.5 L7.46804,9.5 C8.25101,7.49515 9.95561,6 12.118,6 C12.9494,6 13.6528,6.16622 14.2754,6.50382 C14.8859,6.83485 15.3552,7.2969 15.7655,7.78517 C16.1209,8.20795 16.0662,8.83875 15.6434,9.1941 C15.2206,9.54944 14.5898,9.49477 14.2345,9.07198 C13.9021,8.67654 13.6214,8.4243 13.322,8.26197 C13.0348,8.10621 12.6686,8 12.118,8 C11.2061,8 10.2875,8.55449 9.68599,9.5 L12,9.5 C12.5523,9.5 13,9.94772 13,10.5 C13,11.0523 12.5523,11.5 12,11.5 L9.02328,11.5 Z" id="形状" fill="#09244B"></path>
            </g>
        </g>
    </g>
</svg>

<svg xmlns="http://www.w3.org/2000/svg" width="24" height="24"><g fill="none" fill-rule="evenodd"><path d="M0 0h24v24H0z"/><path fill="#09244B" d="M12 2C6.477 2 2 6.477 2 12s4.477 10 10 10 10-4.477 10-10S17.523 2 12 2m-2.977 9.5a5.32 5.32 0 0 0 0 1H12a1 1 0 1 1 0 2H9.686c.601.945 1.52 1.5 2.432 1.5.55 0 .917-.106 1.204-.262.3-.162.58-.415.913-.81a1 1 0 0 1 1.53 1.287c-.41.488-.88.95-1.49 1.281-.622.338-1.326.504-2.157.504-2.162 0-3.867-1.495-4.65-3.5H7a1 1 0 1 1 0-2h.018a6.923 6.923 0 0 1 0-1H7a1 1 0 1 1 0-2h.468C8.251 7.495 9.956 6 12.118 6c.831 0 1.535.166 2.157.504.61.33 1.08.793 1.49 1.281a1 1 0 1 1-1.53 1.287c-.333-.395-.614-.648-.913-.81-.287-.156-.653-.262-1.204-.262-.912 0-1.83.554-2.432 1.5H12a1 1 0 1 1 0 2z"/></g></svg>
